docs/logo/dark.svg

<svg width="160" height="61" viewBox="0 0 160 61" fill="none" xmlns="http://www.w3.org/2000/svg">
<g clip-path="url(#clip0_55_19)">
<path d="M130.75 0C136.178 0 141.047 2.80977 143.761 7.51172L157.975 32.1299L157.962 32.124C160.561 36.6284 160.669 42.0569 158.242 46.6377C155.624 51.5815 150.38 54.6523 144.563 54.6523H112.752C112.3 54.6523 111.879 54.4105 111.649 54.0156C111.42 53.6207 111.42 53.1362 111.649 52.7412L115.568 45.9619C115.791 45.5671 116.218 45.3253 116.67 45.3252H144.958C147.016 45.3252 148.857 44.2605 149.883 42.4766C150.915 40.6926 150.915 38.571 149.883 36.7871L135.669 12.1689C134.643 10.3851 132.802 9.3213 130.744 9.32129C128.686 9.32129 126.845 10.3851 125.819 12.1689L111.605 36.7871C111.491 36.991 111.382 37.2013 111.286 37.4307C111.267 37.4816 111.242 37.5267 111.217 37.5713L101.724 54.0156L100.901 55.3281L98.372 59.7178C98.1489 60.1126 97.7217 60.3545 97.2694 60.3545H89.4394C88.9871 60.3544 88.5662 60.1127 88.3368 59.7178C88.1075 59.3229 88.1077 58.8383 88.3368 58.4434L90.5253 54.6523H66.8026C63.4833 54.6523 60.349 53.5305 57.9853 51.4854C56.6073 50.2947 55.4745 48.9569 54.5907 47.5254C54.558 47.4822 54.5273 47.4368 54.4999 47.3887L34.2011 12.1885C33.1753 10.4046 31.3341 9.3399 29.2763 9.33984C27.2184 9.33984 25.3772 10.4045 24.3515 12.1885L10.1366 36.8066C9.10468 38.5905 9.10457 40.7186 10.1366 42.4961C11.1624 44.2737 13.0045 45.3379 15.0624 45.3379H44.9237C45.3761 45.3379 45.7969 45.5796 46.0263 45.9746C46.2556 46.3696 46.2556 46.8541 46.0263 47.249L42.1142 54.0273C41.8912 54.4224 41.464 54.665 41.0116 54.665H14.495C11.1758 54.665 8.04132 53.5372 5.67764 51.4922C-0.228467 46.3889 -1.6814 38.6094 2.0585 32.1299L16.2665 7.50488C18.8724 3.00076 23.5166 0.198013 28.6962 0.00683594C28.8809 0.000466584 29.053 5.36156e-10 29.2313 0C34.6086 0 39.6805 3.0075 42.4774 7.84961L55.4628 30.2227L68.58 7.50586C71.1858 3.00142 75.8309 0.197972 81.0106 0.00683594C81.1953 0.000475812 81.3675 0 81.5458 0C85.9992 9.49767e-05 90.2551 2.03921 93.2177 5.58789C93.5552 5.99563 93.6058 6.56916 93.3446 7.03418L89.58 13.6348C89.357 14.0297 88.9361 14.2783 88.4774 14.2783C88.0251 14.2783 87.6043 14.0356 87.3749 13.6406L86.5282 12.1758C85.5025 10.3918 83.6603 9.32715 81.6024 9.32715C79.5447 9.32728 77.7033 10.392 76.6776 12.1758L62.4638 36.7939C61.4317 38.5779 61.4317 40.7059 62.4638 42.4834C63.4895 44.2609 65.3307 45.3252 67.3886 45.3252H95.911L117.76 7.48633C120.474 2.80366 125.335 0.000164033 130.75 0Z" fill="white"/>
</g>
<defs>
<clipPath id="clip0_55_19">
<rect width="160" height="60.3608" fill="white"/>
</clipPath>
</defs>
</svg>

<svg xmlns="http://www.w3.org/2000/svg" width="160" height="61" fill="none"><g clip-path="url(#a)"><path fill="#fff" d="M130.75 0c5.428 0 10.297 2.81 13.011 7.512l14.214 24.618-.013-.006c2.599 4.504 2.707 9.933.28 14.514-2.618 4.944-7.862 8.014-13.679 8.014h-31.811c-.452 0-.873-.242-1.103-.636a1.268 1.268 0 0 1 0-1.275l3.919-6.78c.223-.394.65-.636 1.102-.636h28.288a5.622 5.622 0 0 0 4.925-2.848 5.615 5.615 0 0 0 0-5.69L135.669 12.17a5.621 5.621 0 0 0-4.925-2.848 5.621 5.621 0 0 0-4.925 2.848l-14.214 24.618a6.269 6.269 0 0 0-.319.644c-.019.05-.044.096-.069.14l-9.493 16.445-.823 1.312-2.529 4.39a1.27 1.27 0 0 1-1.103.636h-7.83c-.452 0-.873-.241-1.102-.636-.23-.395-.23-.88 0-1.275l2.188-3.79H66.803c-3.32 0-6.454-1.122-8.818-3.168a17.141 17.141 0 0 1-3.394-3.96 1.261 1.261 0 0 1-.091-.136L34.2 12.189a5.622 5.622 0 0 0-4.925-2.85 5.621 5.621 0 0 0-4.924 2.85L10.137 36.806a5.615 5.615 0 0 0 0 5.69 5.63 5.63 0 0 0 4.925 2.84h29.862a1.276 1.276 0 0 1 1.102 1.912l-3.912 6.778a1.27 1.27 0 0 1-1.102.638H14.495c-3.32 0-6.454-1.128-8.817-3.173-5.906-5.103-7.36-12.883-3.62-19.362L16.267 7.505C18.872 3 23.517.198 28.697.007 28.88 0 29.052 0 29.23 0c5.378 0 10.45 3.007 13.246 7.85l12.986 22.373L68.58 7.506C71.186 3 75.83.198 81.01.006 81.196 0 81.369 0 81.547 0c4.453 0 8.71 2.04 11.672 5.588.337.408.388.981.127 1.446l-3.765 6.6a1.268 1.268 0 0 1-2.205.007l-.847-1.465a5.623 5.623 0 0 0-4.926-2.849 5.622 5.622 0 0 0-4.924 2.849L62.464 36.794a5.614 5.614 0 0 0 0 5.69 5.628 5.628 0 0 0 4.925 2.841H95.91L117.76 7.486C120.474 2.804 125.335 0 130.75 0Z"/></g><defs><clipPath id="a"><path fill="#fff" d="M0 0h160v60.361H0z"/></clipPath></defs></svg>
